assets/icons/folder_icons/folder-scripts.svg

<?xml version="1.0" encoding="UTF-8"?><svg id="Done" xmlns="http://www.w3.org/2000/svg" xmlns:xlink="http://www.w3.org/1999/xlink" viewBox="0 0 14 14"><defs><style>.cls-1{fill:#a040ff;}.cls-2{fill:#ffe9a3;}.cls-2,.cls-3{fill-rule:evenodd;}.cls-4{fill:url(#linear-gradient);isolation:isolate;opacity:.723;}</style><linearGradient id="linear-gradient" x1="814.8608" y1="-737.0094" x2="814.8608" y2="-733.0094" gradientTransform="translate(-404.4304 -366.5047) scale(.5 -.5)" gradientUnits="userSpaceOnUse"><stop offset="0" stop-color="#000"/><stop offset="1" stop-color="#000" stop-opacity=".151"/></linearGradient></defs><g id="Layer_29"><g id="g42"><g id="g400"><path id="path399" class="cls-1" d="m1,0C.5286,0,0,.5286,0,1v7c0,.4714.5286,1,1,1h10c.4714,0,1-.5286,1-1V2c0-.4714-.5286-1-1-1h-5c0-.4714-.5286-1-1-1H1Z"/><path id="path400" class="cls-4" d="m1,0C.5286,0,0,.5286,0,1s.5286,1,1,1h4c.4714,0,1-.5286,1-1S5.4714,0,5,0H1Z"/></g><g id="g468"><path id="path464" class="cls-3" d="m4,3l10-.0047v9.0023s-.1384,1.9581-2.0023,2.0023l-7.0779.0047c-3.0035,0-3.0035-4.0047-3.0035-4.0047h2.0837V3Z"/><path id="path465" class="cls-2" d="m5,4l8-.0047v8.0023s0,1.0023-1.0023,1.0023l-7.0861.0047c-2.0047,0-2.0047-2.0047-2.0047-2.0047h2.0931V4Z"/><path id="path466" class="cls-3" d="m11.0415,10l-6.0415.0046v.9954l5.0461-.0046s0,.9954.9954.9954c0,0,.9954,0,.9954-.9954-.9954,0-.9954-.9954-.9954-.9954Z"/></g></g></g></svg>

<svg xmlns="http://www.w3.org/2000/svg" id="Done" viewBox="0 0 14 14"><defs><linearGradient id="linear-gradient" x1="814.861" x2="814.861" y1="-737.009" y2="-733.009" gradientTransform="matrix(.5 0 0 -.5 -404.43 -366.505)" gradientUnits="userSpaceOnUse"><stop offset="0"/><stop offset="1" stop-opacity=".151"/></linearGradient><style>.cls-3{fill-rule:evenodd}</style></defs><g id="Layer_29"><path id="folder" fill="#a040ff" d="M1 0C.529 0 0 .529 0 1v7c0 .471.529 1 1 1h10c.471 0 1-.529 1-1V2c0-.471-.529-1-1-1H6c0-.471-.529-1-1-1z"/><path id="tab" fill="url(#linear-gradient)" d="M1 0C.529 0 0 .529 0 1s.529 1 1 1h4c.471 0 1-.529 1-1s-.529-1-1-1z" opacity=".723" style="isolation:isolate"/><path id="path464" d="m4 3 10-.005v9.003s-.138 1.958-2.002 2.002l-7.078.005C1.916 14.005 1.916 10 1.916 10H4z" class="cls-3"/><path id="path465" fill="#ffe9a3" fill-rule="evenodd" d="m5 4 8-.005v8.003S13 13 11.998 13l-7.086.005C2.907 13.005 2.907 11 2.907 11H5z"/><path id="path466" d="M11.042 10 5 10.005V11l5.046-.005s0 .996.995.996c0 0 .996 0 .996-.996-.996 0-.996-.995-.996-.995" class="cls-3"/></g></svg>
